X:23
T:L'homme a deux femmes, I
C:from Richard Forest
K:D
M:4/4
AB |: AGFE D2 dd | fd edfd AB | AGFE D2 dd | fd ec d2 AB | \
AGFE D2 dd | fded fdAB | AGFE D2 dd | fdec d2 :| \
(3ABc |: d2 fd adfd | cdef gefe | d2 fd adfd | cdeg fdec | \
 d2 fd adfd | cdef gefg | (3agf ge fded | cABc d4 :|
